X:1
T:The Croppie Boy
M:3/4
L:1/8
K:Bb
 GA| BB B2d-B| GG G2A-B| cc c2A-c| FF F2d-e| ff f2b-f| ge d2 Bc| dd e2 cA|\
 BB B2||
